gallery-images/shape4.svg

<svg width="292" height="288" viewBox="0 0 292 288" fill="none" xmlns="http://www.w3.org/2000/svg">
<g clip-path="url(#clip0)">
<path d="M222.869 736.68L385.321 574.011L47.3958 235.635L-115.056 398.304L222.869 736.68Z" stroke="#231F20" stroke-width="0.01"/>
<path d="M-419.141 294.853L-233.127 481.115L22.4988 225.147L-163.515 38.8861L-419.141 294.853Z" stroke="#231F20" stroke-width="0.01"/>
<path d="M438.327 261.083C412.554 237.604 395.543 225.505 389.321 246.717C386.664 255.776 373.291 244.947 359.451 239.172C345.612 233.396 330.841 123.872 318.57 112.694C306.298 101.516 283.743 89.5565 273.936 87.3851C264.13 85.2137 263.979 83.4646 243.54 66.7202C223.102 49.9759 226.22 45.6471 214.233 35.5785C202.245 25.5099 191.412 29.0809 188.54 29.1327C185.668 29.1845 185.104 36.1826 180.385 37.1783C175.666 38.174 158.965 23.0742 156.815 22.687C154.665 22.2997 152.918 29.3601 147.894 29.2434C142.871 29.1266 140.105 16.5397 134.601 10.886C129.097 5.23224 108.733 -4.68884 129.665 -39.4403C150.597 -74.1917 190.817 -28.088 197.464 -23.8013C204.111 -19.5147 193.943 -4.93206 204.567 1.94218C215.19 8.81643 220.959 -1.73244 238.315 5.66512C255.671 13.0627 240.989 42.8066 217.678 69.4036C194.367 96.0005 176.826 145.065 189.933 154.187C203.039 163.309 252.319 157.405 272.664 161.269C286.141 163.826 298.904 173.683 312.605 186.542C322.524 195.576 334.067 208.008 339.174 220.542C344.791 234.321 337.212 247 340.891 260.4C350.219 294.359 407.008 298.122 422.587 267.199C431.138 250.232 346.43 183.869 308.324 154.204C293.144 142.389 275.226 141.25 275.396 138.259C277.245 105.868 255.879 102.771 255.879 102.771C227.742 105.938 226.221 123.396 175.962 118.791C159.143 117.248 145.456 101.642 140.573 103.886C135.69 106.131 133.862 113.88 147.646 109.849C161.43 105.818 164.237 72.4021 163.389 68.6309C162.54 64.8597 140.07 69.0646 135.846 66.6509C131.622 64.2371 134.539 59.6195 128.472 60.609C122.405 61.5986 118.435 68.9154 108.484 71.6522C98.5331 74.3891 87.1758 82.4768 90.771 100.72C88.6665 104.015 92.1871 130.467 119.32 131.608C146.454 132.75 259.584 237.55 255.711 253.78C251.839 270.01 231.692 214.112 207.396 191.53C183.099 168.949 117.726 160.584 88.2324 139.05C58.7386 117.517 87.3617 61.4458 94.5608 63.1659C101.76 64.886 93.377 82.2661 90.7701 100.72C88.8594 114.251 26.9764 138.163 33.9984 90.6225C41.0205 43.0823 68.2843 37.3495 57.6496 3.66228C50.8345 -17.9447 26.3582 -1.53577 22.3991 13.8916C17.464 33.1278 69.4628 -0.144935 75.1406 -13.7582C80.8184 -27.3715 68.8876 -49.328 62.1628 -54.9808" stroke="#231F20"/>
<path d="M254.926 551.66L464.5 761.514L803.672 421.897L594.098 212.043L254.926 551.66Z" stroke="#231F20" stroke-width="0.01"/>
</g>
<defs>
<clipPath id="clip0">
<rect width="292" height="288" fill="white"/>
</clipPath>
</defs>
</svg>

<svg id="Layer_1" data-name="Layer 1" xmlns="http://www.w3.org/2000/svg" xmlns:xlink="http://www.w3.org/1999/xlink" viewBox="0 0 417.094 344.155"><defs><style>.cls-1,.cls-3{fill:none;}.cls-2{clip-path:url(#clip-path);}.cls-3{stroke:#231f20;}</style><clipPath id="clip-path" transform="translate(-21.569 55.364)"><rect class="cls-1" width="292" height="288"/></clipPath></defs><g class="cls-2"><path class="cls-3" d="M438.327,261.083c-25.773-23.479-42.784-35.578-49.006-14.366-2.657,9.059-16.03-1.77-29.87-7.545s-28.61-115.3-40.881-126.478-34.827-23.137-44.634-25.309-9.957-3.92-30.4-20.665-17.32-21.073-29.307-31.142-22.821-6.5-25.693-6.445-3.436,7.05-8.155,8.045-21.42-14.1-23.57-14.491-3.9,6.673-8.921,6.556S140.1,16.54,134.6,10.886,108.733-4.689,129.665-39.44s61.152,11.352,67.8,15.639-3.521,18.869,7.1,25.743,16.392-3.674,33.748,3.723,2.674,37.142-20.637,63.739-40.852,75.661-27.745,84.783,62.386,3.218,82.731,7.082c13.477,2.557,26.24,12.414,39.941,25.273,9.919,9.034,21.462,21.466,26.569,34,5.617,13.779-1.962,26.458,1.717,39.858,9.328,33.959,66.117,37.722,81.7,6.8,8.551-16.967-76.157-83.33-114.263-112.995-15.18-11.815-33.1-12.954-32.928-15.945,1.849-32.391-19.517-35.488-19.517-35.488-28.137,3.167-29.658,20.625-79.917,16.02-16.819-1.543-30.506-17.149-35.389-14.9s-6.711,9.994,7.073,5.963S164.237,72.4,163.389,68.631s-23.319.434-27.543-1.98-1.307-7.032-7.374-6.042-10.037,8.306-19.988,11.043S87.176,82.477,90.771,100.72c-2.105,3.3,1.416,29.747,28.549,30.888S259.584,237.55,255.711,253.78s-24.019-39.668-48.315-62.25-89.67-30.946-119.164-52.48-.87-77.6,6.329-75.884-1.184,19.1-3.791,37.554C88.859,114.251,26.976,138.163,34,90.622S68.284,37.349,57.65,3.662c-6.816-21.607-31.292-5.2-35.251,10.23C17.464,33.128,69.463-.145,75.141-13.758s-6.253-35.57-12.978-41.223" transform="translate(-21.569 55.364)"/></g></svg>
